images/3233336.svg

<?xml version="1.0" encoding="UTF-8"?>
<svg xmlns="http://www.w3.org/2000/svg" xmlns:xlink="http://www.w3.org/1999/xlink" width="300pt" height="300pt" viewBox="0 0 300 300" version="1.1">
<defs>
<g>
<symbol overflow="visible" id="glyph0-0">
<path style="stroke:none;" d="M 0.796875 2.828125 L 0.796875 -11.28125 L 8.796875 -11.28125 L 8.796875 2.828125 Z M 1.703125 1.9375 L 7.90625 1.9375 L 7.90625 -10.390625 L 1.703125 -10.390625 Z M 1.703125 1.9375 "/>
</symbol>
<symbol overflow="visible" id="glyph0-1">
<path style="stroke:none;" d="M 1.578125 -11.671875 L 3.703125 -11.671875 L 8.875 -1.90625 L 8.875 -11.671875 L 10.40625 -11.671875 L 10.40625 0 L 8.28125 0 L 3.109375 -9.765625 L 3.109375 0 L 1.578125 0 Z M 1.578125 -11.671875 "/>
</symbol>
<symbol overflow="visible" id="glyph0-2">
<path style="stroke:none;" d="M 6.3125 -10.59375 C 5.164062 -10.59375 4.253906 -10.164062 3.578125 -9.3125 C 2.898438 -8.457031 2.5625 -7.296875 2.5625 -5.828125 C 2.5625 -4.359375 2.898438 -3.195312 3.578125 -2.34375 C 4.253906 -1.488281 5.164062 -1.0625 6.3125 -1.0625 C 7.457031 -1.0625 8.363281 -1.488281 9.03125 -2.34375 C 9.695312 -3.195312 10.03125 -4.359375 10.03125 -5.828125 C 10.03125 -7.296875 9.695312 -8.457031 9.03125 -9.3125 C 8.363281 -10.164062 7.457031 -10.59375 6.3125 -10.59375 Z M 6.3125 -11.875 C 7.945312 -11.875 9.253906 -11.328125 10.234375 -10.234375 C 11.210938 -9.140625 11.703125 -7.671875 11.703125 -5.828125 C 11.703125 -3.984375 11.210938 -2.507812 10.234375 -1.40625 C 9.253906 -0.3125 7.945312 0.234375 6.3125 0.234375 C 4.664062 0.234375 3.351562 -0.3125 2.375 -1.40625 C 1.394531 -2.507812 0.90625 -3.984375 0.90625 -5.828125 C 0.90625 -7.671875 1.394531 -9.140625 2.375 -10.234375 C 3.351562 -11.328125 4.664062 -11.875 6.3125 -11.875 Z M 6.3125 -11.875 "/>
</symbol>
</g>
</defs>
<g id="surface42925">
<rect x="0" y="0" width="300" height="300" style="fill:rgb(100%,100%,100%);fill-opacity:1;stroke:none;"/>
<path style="fill:none;stroke-width:1.2;stroke-linecap:butt;stroke-linejoin:miter;stroke:rgb(0%,0%,0%);stroke-opacity:1;stroke-miterlimit:10;" d="M 34.957031 96.765625 L 66.734375 118.058594 "/>
<path style="fill:none;stroke-width:1.2;stroke-linecap:butt;stroke-linejoin:miter;stroke:rgb(0%,0%,0%);stroke-opacity:1;stroke-miterlimit:10;" d="M 66.734375 118.058594 L 65.457031 137.140625 "/>
<path style="fill:none;stroke-width:1.2;stroke-linecap:butt;stroke-linejoin:miter;stroke:rgb(0%,0%,100%);stroke-opacity:1;stroke-miterlimit:10;" d="M 65.457031 137.140625 L 64.179688 156.222656 "/>
<path style="fill:none;stroke-width:1.2;stroke-linecap:butt;stroke-linejoin:miter;stroke:rgb(0%,0%,0%);stroke-opacity:1;stroke-miterlimit:10;" d="M 75.457031 122.476562 L 74.4375 137.742188 "/>
<path style="fill:none;stroke-width:1.2;stroke-linecap:butt;stroke-linejoin:miter;stroke:rgb(0%,0%,100%);stroke-opacity:1;stroke-miterlimit:10;" d="M 74.4375 137.742188 L 73.414062 153.007812 "/>
<path style="fill:none;stroke-width:1.2;stroke-linecap:butt;stroke-linejoin:miter;stroke:rgb(0%,0%,0%);stroke-opacity:1;stroke-miterlimit:10;" d="M 101.0625 101.1875 L 66.734375 118.058594 "/>
<path style="fill:none;stroke-width:1.2;stroke-linecap:butt;stroke-linejoin:miter;stroke:rgb(0%,0%,100%);stroke-opacity:1;stroke-miterlimit:10;" d="M 64.179688 156.222656 L 80.066406 166.871094 "/>
<path style="fill:none;stroke-width:1.2;stroke-linecap:butt;stroke-linejoin:miter;stroke:rgb(0%,0%,0%);stroke-opacity:1;stroke-miterlimit:10;" d="M 80.066406 166.871094 L 95.953125 177.519531 "/>
<path style=" stroke:none;fill-rule:nonzero;fill:rgb(100%,100%,100%);fill-opacity:1;" d="M 58.179688 146.722656 L 70.179688 146.722656 L 70.179688 165.722656 L 58.179688 165.722656 Z M 58.179688 146.722656 "/>
<g style="fill:rgb(0%,0%,100%);fill-opacity:1;">
  <use xlink:href="#glyph0-1" x="58.179688" y="161.574219"/>
</g>
<path style="fill:none;stroke-width:1.2;stroke-linecap:butt;stroke-linejoin:miter;stroke:rgb(0%,0%,0%);stroke-opacity:1;stroke-miterlimit:10;" d="M 95.953125 177.519531 L 93.402344 215.683594 "/>
<path style="fill:none;stroke-width:1.2;stroke-linecap:butt;stroke-linejoin:miter;stroke:rgb(0%,0%,0%);stroke-opacity:1;stroke-miterlimit:10;" d="M 104.679688 181.933594 L 102.636719 212.46875 "/>
<path style="fill:none;stroke-width:1.2;stroke-linecap:butt;stroke-linejoin:miter;stroke:rgb(0%,0%,0%);stroke-opacity:1;stroke-miterlimit:10;" d="M 130.28125 160.648438 L 95.953125 177.519531 "/>
<path style="fill:none;stroke-width:1.2;stroke-linecap:butt;stroke-linejoin:miter;stroke:rgb(0%,0%,0%);stroke-opacity:1;stroke-miterlimit:10;" d="M 93.402344 215.683594 L 109.289062 226.328125 "/>
<path style="fill:none;stroke-width:1.2;stroke-linecap:butt;stroke-linejoin:miter;stroke:rgb(0%,0%,100%);stroke-opacity:1;stroke-miterlimit:10;" d="M 109.289062 226.328125 L 125.175781 236.976562 "/>
<path style="fill:none;stroke-width:1.2;stroke-linecap:butt;stroke-linejoin:miter;stroke:rgb(0%,0%,100%);stroke-opacity:1;stroke-miterlimit:10;" d="M 125.175781 236.976562 L 142.339844 228.539062 "/>
<path style="fill:none;stroke-width:1.2;stroke-linecap:butt;stroke-linejoin:miter;stroke:rgb(0%,0%,0%);stroke-opacity:1;stroke-miterlimit:10;" d="M 142.339844 228.539062 L 159.503906 220.105469 "/>
<path style="fill:none;stroke-width:1.2;stroke-linecap:butt;stroke-linejoin:miter;stroke:rgb(0%,0%,100%);stroke-opacity:1;stroke-miterlimit:10;" d="M 124.636719 227.210938 L 138.371094 220.464844 "/>
<path style="fill:none;stroke-width:1.2;stroke-linecap:butt;stroke-linejoin:miter;stroke:rgb(0%,0%,0%);stroke-opacity:1;stroke-miterlimit:10;" d="M 138.371094 220.464844 L 152.101562 213.714844 "/>
<path style=" stroke:none;fill-rule:nonzero;fill:rgb(100%,100%,100%);fill-opacity:1;" d="M 119.175781 227.476562 L 131.175781 227.476562 L 131.175781 246.476562 L 119.175781 246.476562 Z M 119.175781 227.476562 "/>
<g style="fill:rgb(0%,0%,100%);fill-opacity:1;">
  <use xlink:href="#glyph0-1" x="119.175781" y="242.328125"/>
</g>
<path style="fill:none;stroke-width:1.2;stroke-linecap:butt;stroke-linejoin:miter;stroke:rgb(0%,0%,0%);stroke-opacity:1;stroke-miterlimit:10;" d="M 159.503906 220.105469 L 160.78125 201.023438 "/>
<path style="fill:none;stroke-width:1.2;stroke-linecap:butt;stroke-linejoin:miter;stroke:rgb(0%,0%,100%);stroke-opacity:1;stroke-miterlimit:10;" d="M 160.78125 201.023438 L 162.058594 181.941406 "/>
<path style="fill:none;stroke-width:1.2;stroke-linecap:butt;stroke-linejoin:miter;stroke:rgb(0%,0%,100%);stroke-opacity:1;stroke-miterlimit:10;" d="M 162.058594 181.941406 L 146.167969 171.292969 "/>
<path style="fill:none;stroke-width:1.2;stroke-linecap:butt;stroke-linejoin:miter;stroke:rgb(0%,0%,0%);stroke-opacity:1;stroke-miterlimit:10;" d="M 146.167969 171.292969 L 130.28125 160.648438 "/>
<path style="fill:none;stroke-width:1.2;stroke-linecap:butt;stroke-linejoin:miter;stroke:rgb(0%,0%,100%);stroke-opacity:1;stroke-miterlimit:10;" d="M 153.871094 187.289062 L 141.160156 178.769531 "/>
<path style="fill:none;stroke-width:1.2;stroke-linecap:butt;stroke-linejoin:miter;stroke:rgb(0%,0%,0%);stroke-opacity:1;stroke-miterlimit:10;" d="M 141.160156 178.769531 L 128.449219 170.253906 "/>
<path style=" stroke:none;fill-rule:nonzero;fill:rgb(100%,100%,100%);fill-opacity:1;" d="M 156.058594 172.441406 L 168.058594 172.441406 L 168.058594 191.441406 L 156.058594 191.441406 Z M 156.058594 172.441406 "/>
<g style="fill:rgb(0%,0%,100%);fill-opacity:1;">
  <use xlink:href="#glyph0-1" x="156.058594" y="187.292969"/>
</g>
<path style="fill:none;stroke-width:1.2;stroke-linecap:butt;stroke-linejoin:miter;stroke:rgb(0%,0%,0%);stroke-opacity:1;stroke-miterlimit:10;" d="M 130.28125 160.648438 L 131.558594 141.566406 "/>
<path style="fill:none;stroke-width:1.2;stroke-linecap:butt;stroke-linejoin:miter;stroke:rgb(0%,0%,100%);stroke-opacity:1;stroke-miterlimit:10;" d="M 131.558594 141.566406 L 132.835938 122.480469 "/>
<path style="fill:none;stroke-width:1.2;stroke-linecap:butt;stroke-linejoin:miter;stroke:rgb(0%,0%,100%);stroke-opacity:1;stroke-miterlimit:10;" d="M 132.835938 122.480469 L 116.949219 111.835938 "/>
<path style="fill:none;stroke-width:1.2;stroke-linecap:butt;stroke-linejoin:miter;stroke:rgb(0%,0%,0%);stroke-opacity:1;stroke-miterlimit:10;" d="M 116.949219 111.835938 L 101.0625 101.1875 "/>
<path style="fill:none;stroke-width:1.2;stroke-linecap:butt;stroke-linejoin:miter;stroke:rgb(0%,0%,100%);stroke-opacity:1;stroke-miterlimit:10;" d="M 132.835938 122.480469 L 150 114.046875 "/>
<path style="fill:none;stroke-width:1.2;stroke-linecap:butt;stroke-linejoin:miter;stroke:rgb(0%,0%,0%);stroke-opacity:1;stroke-miterlimit:10;" d="M 150 114.046875 L 167.164062 105.609375 "/>
<path style=" stroke:none;fill-rule:nonzero;fill:rgb(100%,100%,100%);fill-opacity:1;" d="M 126.835938 112.980469 L 138.835938 112.980469 L 138.835938 131.980469 L 126.835938 131.980469 Z M 126.835938 112.980469 "/>
<g style="fill:rgb(0%,0%,100%);fill-opacity:1;">
  <use xlink:href="#glyph0-1" x="126.835938" y="127.832031"/>
</g>
<path style="fill:none;stroke-width:1.2;stroke-linecap:butt;stroke-linejoin:miter;stroke:rgb(0%,0%,0%);stroke-opacity:1;stroke-miterlimit:10;" d="M 105.550781 101.488281 L 106.828125 82.40625 "/>
<path style="fill:none;stroke-width:1.2;stroke-linecap:butt;stroke-linejoin:miter;stroke:rgb(100%,0%,0%);stroke-opacity:1;stroke-miterlimit:10;" d="M 106.828125 82.40625 L 108.105469 63.324219 "/>
<path style="fill:none;stroke-width:1.2;stroke-linecap:butt;stroke-linejoin:miter;stroke:rgb(0%,0%,0%);stroke-opacity:1;stroke-miterlimit:10;" d="M 96.570312 100.886719 L 97.847656 81.804688 "/>
<path style="fill:none;stroke-width:1.2;stroke-linecap:butt;stroke-linejoin:miter;stroke:rgb(100%,0%,0%);stroke-opacity:1;stroke-miterlimit:10;" d="M 97.847656 81.804688 L 99.125 62.722656 "/>
<path style=" stroke:none;fill-rule:nonzero;fill:rgb(100%,100%,100%);fill-opacity:1;" d="M 97.613281 53.523438 L 110.613281 53.523438 L 110.613281 72.523438 L 97.613281 72.523438 Z M 97.613281 53.523438 "/>
<g style="fill:rgb(100%,0%,0%);fill-opacity:1;">
  <use xlink:href="#glyph0-2" x="97.613281" y="68.375"/>
</g>
<path style="fill:none;stroke-width:1.2;stroke-linecap:butt;stroke-linejoin:miter;stroke:rgb(0%,0%,0%);stroke-opacity:1;stroke-miterlimit:10;" d="M 167.164062 105.609375 L 198.9375 126.90625 "/>
<path style="fill:none;stroke-width:1.2;stroke-linecap:butt;stroke-linejoin:miter;stroke:rgb(0%,0%,0%);stroke-opacity:1;stroke-miterlimit:10;" d="M 198.9375 126.90625 L 216.101562 118.46875 "/>
<path style="fill:none;stroke-width:1.2;stroke-linecap:butt;stroke-linejoin:miter;stroke:rgb(100%,0%,0%);stroke-opacity:1;stroke-miterlimit:10;" d="M 216.101562 118.46875 L 233.265625 110.035156 "/>
<path style="fill:none;stroke-width:1.2;stroke-linecap:butt;stroke-linejoin:miter;stroke:rgb(100%,0%,0%);stroke-opacity:1;stroke-miterlimit:10;" d="M 233.265625 110.035156 L 249.15625 120.679688 "/>
<path style="fill:none;stroke-width:1.2;stroke-linecap:butt;stroke-linejoin:miter;stroke:rgb(0%,0%,0%);stroke-opacity:1;stroke-miterlimit:10;" d="M 249.15625 120.679688 L 265.042969 131.328125 "/>
<path style=" stroke:none;fill-rule:nonzero;fill:rgb(100%,100%,100%);fill-opacity:1;" d="M 227.265625 100.535156 L 240.265625 100.535156 L 240.265625 119.535156 L 227.265625 119.535156 Z M 227.265625 100.535156 "/>
<g style="fill:rgb(100%,0%,0%);fill-opacity:1;">
  <use xlink:href="#glyph0-2" x="227.265625" y="115.386719"/>
</g>
</g>
</svg>

<svg xmlns="http://www.w3.org/2000/svg" xmlns:xlink="http://www.w3.org/1999/xlink" width="300pt" height="300pt" viewBox="0 0 300 300"><defs><symbol overflow="visible"><path d="M.797 2.828v-14.11h8V2.83zm.906-.89h6.203v-12.33H1.703zm0 0"/></symbol><symbol overflow="visible" id="a"><path d="M1.578-11.672h2.125l5.172 9.766v-9.766h1.53V0H8.282L3.11-9.766V0H1.577zm0 0"/></symbol><symbol overflow="visible" id="b"><path d="M6.313-10.594c-1.15 0-2.06.43-2.735 1.28-.68.857-1.015 2.017-1.015 3.486 0 1.47.335 2.633 1.015 3.484.676.856 1.586 1.28 2.735 1.28 1.144.002 2.05-.424 2.718-1.28.665-.85 1-2.015 1-3.484 0-1.47-.335-2.63-1-3.484-.667-.852-1.573-1.282-2.717-1.282zm0-1.28c1.632 0 2.94.546 3.92 1.64.978 1.093 1.47 2.562 1.47 4.406 0 1.844-.492 3.32-1.47 4.422-.98 1.093-2.288 1.64-3.92 1.64-1.65 0-2.96-.546-3.938-1.64-.98-1.102-1.47-2.578-1.47-4.422 0-1.844.49-3.313 1.47-4.406.977-1.094 2.29-1.64 3.938-1.64zm0 0"/></symbol></defs><g><path fill="#fff" d="M0 0h300v300H0z"/><path d="M34.957 96.766l31.777 21.293M66.734 118.06l-1.277 19.08" stroke-width="1.2" stroke="#000" stroke-miterlimit="10" fill="none"/><path d="M65.457 137.14l-1.277 19.083" stroke-width="1.2" stroke="#00f" stroke-miterlimit="10" fill="none"/><path d="M75.457 122.477l-1.02 15.265" stroke-width="1.2" stroke="#000" stroke-miterlimit="10" fill="none"/><path d="M74.438 137.742l-1.024 15.266" stroke-width="1.2" stroke="#00f" stroke-miterlimit="10" fill="none"/><path d="M101.063 101.188l-34.33 16.87" stroke-width="1.2" stroke="#000" stroke-miterlimit="10" fill="none"/><path d="M64.18 156.223l15.886 10.648" stroke-width="1.2" stroke="#00f" stroke-miterlimit="10" fill="none"/><path d="M80.066 166.87l15.887 10.65" stroke-width="1.2" stroke="#000" stroke-miterlimit="10" fill="none"/><path d="M58.18 146.723h12v19h-12zm0 0" fill="#fff"/><use xlink:href="#a" x="58.18" y="161.574" fill="#00f"/><path d="M95.953 177.52l-2.55 38.164M104.68 181.934l-2.043 30.535M130.28 160.648L95.954 177.52M93.402 215.684l15.887 10.644" stroke-width="1.2" stroke="#000" stroke-miterlimit="10" fill="none"/><path d="M109.29 226.328l15.886 10.65M125.176 236.977l17.164-8.438" stroke-width="1.2" stroke="#00f" stroke-miterlimit="10" fill="none"/><path d="M142.34 228.54l17.164-8.435" stroke-width="1.2" stroke="#000" stroke-miterlimit="10" fill="none"/><path d="M124.637 227.21l13.734-6.745" stroke-width="1.2" stroke="#00f" stroke-miterlimit="10" fill="none"/><path d="M138.37 220.465l13.732-6.75" stroke-width="1.2" stroke="#000" stroke-miterlimit="10" fill="none"/><path d="M119.176 227.477h12v19h-12zm0 0" fill="#fff"/><use xlink:href="#a" x="119.176" y="242.328" fill="#00f"/><path d="M159.504 220.105l1.277-19.082" stroke-width="1.2" stroke="#000" stroke-miterlimit="10" fill="none"/><path d="M160.78 201.023l1.28-19.082M162.06 181.94l-15.892-10.647" stroke-width="1.2" stroke="#00f" stroke-miterlimit="10" fill="none"/><path d="M146.168 171.293l-15.887-10.645" stroke-width="1.2" stroke="#000" stroke-miterlimit="10" fill="none"/><path d="M153.87 187.29l-12.71-8.52" stroke-width="1.2" stroke="#00f" stroke-miterlimit="10" fill="none"/><path d="M141.16 178.77l-12.71-8.516" stroke-width="1.2" stroke="#000" stroke-miterlimit="10" fill="none"/><path d="M156.06 172.44h12v19h-12zm0 0" fill="#fff"/><use xlink:href="#a" x="156.059" y="187.293" fill="#00f"/><path d="M130.28 160.648l1.28-19.082" stroke-width="1.2" stroke="#000" stroke-miterlimit="10" fill="none"/><path d="M131.56 141.566l1.276-19.086M132.836 122.48l-15.887-10.644" stroke-width="1.2" stroke="#00f" stroke-miterlimit="10" fill="none"/><path d="M116.95 111.836l-15.888-10.648" stroke-width="1.2" stroke="#000" stroke-miterlimit="10" fill="none"/><path d="M132.836 122.48L150 114.047" stroke-width="1.2" stroke="#00f" stroke-miterlimit="10" fill="none"/><path d="M150 114.047l17.164-8.438" stroke-width="1.2" stroke="#000" stroke-miterlimit="10" fill="none"/><path d="M126.836 112.98h12v19h-12zm0 0" fill="#fff"/><use xlink:href="#a" x="126.836" y="127.832" fill="#00f"/><path d="M105.55 101.488l1.278-19.082" stroke-width="1.2" stroke="#000" stroke-miterlimit="10" fill="none"/><path d="M106.828 82.406l1.277-19.082" stroke-width="1.2" stroke="#f00" stroke-miterlimit="10" fill="none"/><path d="M96.57 100.887l1.278-19.082" stroke-width="1.2" stroke="#000" stroke-miterlimit="10" fill="none"/><path d="M97.848 81.805l1.277-19.082" stroke-width="1.2" stroke="#f00" stroke-miterlimit="10" fill="none"/><path d="M97.613 53.523h13v19h-13zm0 0" fill="#fff"/><use xlink:href="#b" x="97.613" y="68.375" fill="#f00"/><path d="M167.164 105.61l31.774 21.296M198.938 126.906l17.164-8.437" stroke-width="1.2" stroke="#000" stroke-miterlimit="10" fill="none"/><path d="M216.102 118.47l17.164-8.435M233.266 110.035l15.89 10.645" stroke-width="1.2" stroke="#f00" stroke-miterlimit="10" fill="none"/><path d="M249.156 120.68l15.887 10.648" stroke-width="1.2" stroke="#000" stroke-miterlimit="10" fill="none"/><path d="M227.266 100.535h13v19h-13zm0 0" fill="#fff"/><use xlink:href="#b" x="227.266" y="115.387" fill="#f00"/></g></svg>
